svg/blobs-icons/no-decorations/plant.svg

<svg xmlns="http://www.w3.org/2000/svg" xmlns:xlink="http://www.w3.org/1999/xlink" preserveAspectRatio="xMidYMid" width="217" height="215" viewBox="0 0 217 215"><defs><style>.cls-3{fill:#142a3b}.cls-5{fill:#020403;opacity:.45}.cls-7{fill:#ff3a2f}.cls-8{fill:#020403;opacity:.35}.cls-9{fill:#0cb04a}.cls-10{fill:#fff}</style></defs><g id="group-51svg"><path d="M155.008 184.351C161.991 188.367 169.159 193.733 176.439 200.779 176.439 200.779 170.836 203.996 161.094 207.262 193.537 212.344 216.881 198.902 216.881 198.902c-24.078-23.302-46.451-21.259-61.873-14.551z" id="path-1" class="cls-3" fill-rule="evenodd"/><path d="M60.91 200.779S67.891 193.024 79.709 185.894c-36.406-18.951-65.217 13.008-65.217 13.008C38.434 210.125 60.014 209.591 75.152 206.538 70.482 204.923 65.735 203.041 60.91 200.779z" id="path-2" class="cls-3" fill-rule="evenodd"/><path d="M184.753 207.262C194.495 203.996 200.098 200.779 200.098 200.779 192.817 193.733 185.651 188.367 178.667 184.351 181.392 183.165 184.346 182.138 187.476 181.359 175.025 178.214 163.866 180.498 155.008 184.351 161.991 188.367 169.159 193.733 176.439 200.779 176.439 200.779 170.836 203.996 161.094 207.262 170.979 208.81 180.003 208.628 187.795 207.641 186.782 207.516 185.786 207.424 184.753 207.262z" id="path-3" class="cls-5" fill-rule="evenodd"/><path d="M60.91 200.779s6.982-7.755 18.799-14.885C73.774 182.805 68.047 181.087 62.607 180.345 60.839 180.584 59.049 180.897 57.221 181.359 60.352 182.138 63.304 183.165 66.03 184.351 59.047 188.367 51.88 193.733 44.599 200.779c0 0 5.602 3.21700000000001 15.344 6.483C58.911 207.424 57.915 207.516 56.902 207.641 58.793 207.881 60.763 208.068 62.794 208.199 67.265 207.892 71.407 207.293 75.152 206.538 70.482 204.923 65.735 203.04 60.91 200.779z" id="path-4" class="cls-5" fill-rule="evenodd"/><path d="M60.91 200.779s53.781-59.758 115.528.0c0 0-51.788 29.879-115.528.0z" id="path-5" class="cls-7" fill-rule="evenodd"/><path d="M107.127 175.313C121.278 177.856 136.754 185.27 152.78 200.779c0 0-17.807 10.253-45.369 12.732C148.029 217.14 176.439 200.779 176.439 200.779c-25.557-24.733-49.733-28.968-69.312-25.466z" id="path-6" class="cls-8" fill-rule="evenodd"/><path d="M159.411 70.78c0 24.752-44.817 44.818-44.817 44.818S69.777 95.532 69.777 70.78c0-24.752 44.817-70.766 44.817-70.766s44.817 46.014 44.817 70.766z" id="path-7" class="cls-9" fill-rule="evenodd"/><path d="M78.199 79.151C76.203 79.151 74.585 77.534 74.585 75.537c0-21.032 35.377-57.595 36.883-59.142C112.859 14.966 115.149 14.936 116.579 16.33 118.009 17.721 118.039 20.009 116.647 21.44c-9.688 9.951-34.833 39.068-34.833 54.097C81.814 77.534 80.195 79.151 78.199 79.151z" id="path-8" class="cls-10" fill-rule="evenodd"/><path d="M114.594.014S112.163 2.515 108.456 6.63c13.169 15.072 35.182 42.854 35.182 60.207.0 20.021-29.313 36.97-40.522 42.72C109.679 113.392 114.594 115.598 114.594 115.598s44.817-20.066 44.817-44.818c0-24.752-44.817-70.766-44.817-70.766z" id="path-9" class="cls-8" fill-rule="evenodd"/><path d="M115.746 177.083C113.75 177.083 112.132 175.465 112.132 173.469L112.183 126.004C120.171 78.67 111.185 42.948 111.094 42.593 110.596 40.661 111.758 38.688 113.689 38.189 115.612 37.691 117.591 38.849 118.092 40.78 118.481 42.284 127.536 78.111 119.361 126.908v46.561C119.361 175.465 117.742 177.083 115.746 177.083z" id="path-10" class="cls-3" fill-rule="evenodd"/><path d="M31.58 166.464C48.67 176.013 79.813 152.807 79.813 152.807s3.434-38.685-13.657-48.234C49.065 95.025.007 108.222.007 108.222s14.482 48.694 31.573 58.242z" id="path-11" class="cls-9" fill-rule="evenodd"/><path d="M66.156 120.345C75.951 125.818 79 140.856 79.822 152.701 80.001 150.51 82.734 113.835 66.156 104.573 49.065 95.025.007 108.222.007 108.222S1.847 114.394 4.977 122.762C17.866 119.725 52.383 112.651 66.156 120.345z" id="path-12" class="cls-8" fill-rule="evenodd"/><path d="M115.195 177.238C114.599 177.238 113.993 177.089 113.436 176.777L85.469 161.152c-36.96-13.232-58.294-33.391-59.187-34.244C24.84 125.529 24.79 123.243 26.169 121.801c1.379-1.441 3.666-1.496 5.11-.119C31.487 121.881 52.589 141.763 88.181 154.445L88.732 154.694s28.23 15.772 28.23 15.772C118.704 171.439 119.329 173.642 118.355 175.385 117.693 176.569 116.463 177.238 115.195 177.238z" id="path-13" class="cls-3" fill-rule="evenodd"/></g></svg>

<svg xmlns="http://www.w3.org/2000/svg" xmlns:xlink="http://www.w3.org/1999/xlink" preserveAspectRatio="xMidYMid" width="217" height="215" viewBox="0 0 217 215">
  <defs>
    <style>

      .cls-3 {
        fill: #142a3b;
      }

      .cls-5 {
        fill: #020403;
        opacity: 0.45;
      }

      .cls-7 {
        fill: #ff3a2f;
      }

      .cls-8 {
        fill: #020403;
        opacity: 0.35;
      }

      .cls-9 {
        fill: #0cb04a;
      }

      .cls-10 {
        fill: #ffffff;
      }
    </style>
  </defs>
  <g id="group-51svg">
    <path d="M155.008,184.351 C161.991,188.367 169.159,193.733 176.439,200.779 C176.439,200.779 170.836,203.996 161.094,207.262 C193.537,212.344 216.881,198.902 216.881,198.902 C192.803,175.600 170.430,177.643 155.008,184.351 Z" id="path-1" class="cls-3" fill-rule="evenodd"/>
    <path d="M60.910,200.779 C60.910,200.779 67.891,193.024 79.709,185.894 C43.303,166.943 14.492,198.902 14.492,198.902 C38.434,210.125 60.014,209.591 75.152,206.538 C70.482,204.923 65.735,203.041 60.910,200.779 Z" id="path-2" class="cls-3" fill-rule="evenodd"/>
    <path d="M184.753,207.262 C194.495,203.996 200.098,200.779 200.098,200.779 C192.817,193.733 185.651,188.367 178.667,184.351 C181.392,183.165 184.346,182.138 187.476,181.359 C175.025,178.214 163.866,180.498 155.008,184.351 C161.991,188.367 169.159,193.733 176.439,200.779 C176.439,200.779 170.836,203.996 161.094,207.262 C170.979,208.810 180.003,208.628 187.795,207.641 C186.782,207.516 185.786,207.424 184.753,207.262 Z" id="path-3" class="cls-5" fill-rule="evenodd"/>
    <path d="M60.910,200.779 C60.910,200.779 67.892,193.024 79.709,185.894 C73.774,182.805 68.047,181.087 62.607,180.345 C60.839,180.584 59.049,180.897 57.221,181.359 C60.352,182.138 63.304,183.165 66.030,184.351 C59.047,188.367 51.880,193.733 44.599,200.779 C44.599,200.779 50.201,203.996 59.943,207.262 C58.911,207.424 57.915,207.516 56.902,207.641 C58.793,207.881 60.763,208.068 62.794,208.199 C67.265,207.892 71.407,207.293 75.152,206.538 C70.482,204.923 65.735,203.040 60.910,200.779 Z" id="path-4" class="cls-5" fill-rule="evenodd"/>
    <path d="M60.910,200.779 C60.910,200.779 114.691,141.021 176.438,200.779 C176.438,200.779 124.650,230.658 60.910,200.779 Z" id="path-5" class="cls-7" fill-rule="evenodd"/>
    <path d="M107.127,175.313 C121.278,177.856 136.754,185.270 152.780,200.779 C152.780,200.779 134.973,211.032 107.411,213.511 C148.029,217.140 176.439,200.779 176.439,200.779 C150.882,176.046 126.706,171.811 107.127,175.313 Z" id="path-6" class="cls-8" fill-rule="evenodd"/>
    <path d="M159.411,70.780 C159.411,95.532 114.594,115.598 114.594,115.598 C114.594,115.598 69.777,95.532 69.777,70.780 C69.777,46.028 114.594,0.014 114.594,0.014 C114.594,0.014 159.411,46.028 159.411,70.780 Z" id="path-7" class="cls-9" fill-rule="evenodd"/>
    <path d="M78.199,79.151 C76.203,79.151 74.585,77.534 74.585,75.537 C74.585,54.505 109.962,17.942 111.468,16.395 C112.859,14.966 115.149,14.936 116.579,16.330 C118.009,17.721 118.039,20.009 116.647,21.440 C106.959,31.391 81.814,60.508 81.814,75.537 C81.814,77.534 80.195,79.151 78.199,79.151 Z" id="path-8" class="cls-10" fill-rule="evenodd"/>
    <path d="M114.594,0.014 C114.594,0.014 112.163,2.515 108.456,6.630 C121.625,21.702 143.638,49.484 143.638,66.837 C143.638,86.858 114.325,103.807 103.116,109.557 C109.679,113.392 114.594,115.598 114.594,115.598 C114.594,115.598 159.411,95.532 159.411,70.780 C159.411,46.028 114.594,0.014 114.594,0.014 Z" id="path-9" class="cls-8" fill-rule="evenodd"/>
    <path d="M115.746,177.083 C113.750,177.083 112.132,175.465 112.132,173.469 C112.132,173.469 112.183,126.004 112.183,126.004 C120.171,78.670 111.185,42.948 111.094,42.593 C110.596,40.661 111.758,38.688 113.689,38.189 C115.612,37.691 117.591,38.849 118.092,40.780 C118.481,42.284 127.536,78.111 119.361,126.908 C119.361,126.908 119.361,173.469 119.361,173.469 C119.361,175.465 117.742,177.083 115.746,177.083 Z" id="path-10" class="cls-3" fill-rule="evenodd"/>
    <path d="M31.580,166.464 C48.670,176.013 79.813,152.807 79.813,152.807 C79.813,152.807 83.247,114.122 66.156,104.573 C49.065,95.025 0.007,108.222 0.007,108.222 C0.007,108.222 14.489,156.916 31.580,166.464 Z" id="path-11" class="cls-9" fill-rule="evenodd"/>
    <path d="M66.156,120.345 C75.951,125.818 79.000,140.856 79.822,152.701 C80.001,150.510 82.734,113.835 66.156,104.573 C49.065,95.025 0.007,108.222 0.007,108.222 C0.007,108.222 1.847,114.394 4.977,122.762 C17.866,119.725 52.383,112.651 66.156,120.345 Z" id="path-12" class="cls-8" fill-rule="evenodd"/>
    <path d="M115.195,177.238 C114.599,177.238 113.993,177.089 113.436,176.777 C113.436,176.777 85.469,161.152 85.469,161.152 C48.509,147.920 27.175,127.761 26.282,126.908 C24.840,125.529 24.790,123.243 26.169,121.801 C27.548,120.360 29.835,120.305 31.279,121.682 C31.487,121.881 52.589,141.763 88.181,154.445 C88.181,154.445 88.732,154.694 88.732,154.694 C88.732,154.694 116.962,170.466 116.962,170.466 C118.704,171.439 119.329,173.642 118.355,175.385 C117.693,176.569 116.463,177.238 115.195,177.238 Z" id="path-13" class="cls-3" fill-rule="evenodd"/>
  </g>
</svg>
